X: 16039
T: Green Cottage, The
R: polka
M: 2/4
K: Adorian
e/d/|:cB BG|EA AB|cB AG|cd ed|
cB BG|EA A2|ed cB|1 A3 e/d/:|2 A2 ed||
|:e>a a>b|a>e e>d|e>a a>b|a2 ab|
c’2 b2|ag ed|eA A/B/c/d/|1 e2 ed:|2 e2 ee/d/||

